resources/svg/ms-excel.svg

<svg xmlns="http://www.w3.org/2000/svg" viewBox="0 0 15 15" fill="currentColor"><path d="M3.79293 7.49998L2.14648 5.85353L2.85359 5.14642L4.50004 6.79287L6.14648 5.14642L6.85359 5.85353L5.20714 7.49998L6.85359 9.14642L6.14648 9.85353L4.50004 8.20708L2.85359 9.85353L2.14648 9.14642L3.79293 7.49998Z" fill="black"/><path fill-rule="evenodd" clip-rule="evenodd" d="M3.5 0C2.67157 0 2 0.671573 2 1.5V3H1.5C0.671573 3 0 3.67157 0 4.5V10.5C0 11.3284 0.671573 12 1.5 12H2V13.5C2 14.3284 2.67157 15 3.5 15H13.5C14.3284 15 15 14.3284 15 13.5V1.5C15 0.671573 14.3284 0 13.5 0H3.5ZM1.5 4C1.22386 4 1 4.22386 1 4.5V10.5C1 10.7761 1.22386 11 1.5 11H7.5C7.77614 11 8 10.7761 8 10.5V4.5C8 4.22386 7.77614 4 7.5 4H1.5Z" fill="black"/></svg>

<svg xmlns="http://www.w3.org/2000/svg" viewBox="0 0 15 15" fill="currentColor"><path d="M3.793 7.5L2.146 5.854l.708-.708L4.5 6.793l1.646-1.647.708.708L5.207 7.5l1.647 1.646-.708.708L4.5 8.207 2.854 9.854l-.708-.708L3.793 7.5z" fill="currentColor"/><path fill-rule="evenodd" clip-rule="evenodd" d="M3.5 0A1.5 1.5 0 002 1.5V3h-.5A1.5 1.5 0 000 4.5v6A1.5 1.5 0 001.5 12H2v1.5A1.5 1.5 0 003.5 15h10a1.5 1.5 0 001.5-1.5v-12A1.5 1.5 0 0013.5 0h-10zm-2 4a.5.5 0 00-.5.5v6a.5.5 0 00.5.5h6a.5.5 0 00.5-.5v-6a.5.5 0 00-.5-.5h-6z" fill="currentColor"/></svg>
